!!!COM: Gomółka, Mikołaj
!!!CDT: ~1535-after 1591
!!!OTL@POL: Płacz sprawiedliwy
!!!OTL@LAT: Exaudi Domine
!!!AGn: Motet; Psalm
!!!SCn: Gom2017
!!!SCn: Gom2017
!!!voices: 4
**kern	**kern	**kern	**kern
*staff4	*staff3	*staff2	*staff1
*Ivox	*Ivox	*Ivox	*Ivox
*I"Bassus	*I"Tenor	*I"Altus	*I"Cantus
*I'B	*I'T	*I'A	*I'C
*clefF4	*clefGv2	*clefGv2	*clefG2
*k[]	*k[]	*k[]	*k[]
*M2/1	*M2/1	*M2/1	*M2/1
*met(C|)	*met(C|)	*met(C|)	*met(C|)
=1-	=1-	=1-	=1-
1A	1c#	1e	1a
2D	2.d	2.f	2a
2D	.	.	[2a
.	4e	4e	.
=2	=2	=2	=2
4D	2f	2d	4a]
4E	.	.	4g
4F	2f	2d	4a
4G	.	.	4b
2A	2e	2c	2cc
2A	2c	2e	2cc
=3	=3	=3	=3
2D	2.d	2f	2b
2D	.	2f	1a
.	4c	.	.
1E	1B	2.e	.
.	.	.	2g#i
.	.	4d	.
=4	=4	=4	=4
1AA	1A	1c#	1a
1A	1c#	1e	1a
=5	=5	=5	=5
2D	2.d	2.f	2a
2D	.	.	2.a
.	4e	4e	.
4D	2f	2d	.
4E	.	.	4g
4F	2f	2d	4a
4G	.	.	4b
=6	=6	=6	=6
2A	2e	2c	2cc
2A	2c	2e	2cc
2D	2.d	2f	2b
2D	.	2f	[2a
.	4c	.	.
=7	=7	=7	=7
1E	1B	2.e	2a]
.	.	.	2g#i
.	.	4d	.
1AA	1A	1c#	1a
=8	=8	=8	=8
1FF	1A	2.f	1cc
.	.	4e	.
2BB-	2F	4d	2b-
.	.	4c	.
2GG	2G	[2d	2b-
=9	=9	=9	=9
1AA	1E	2d]	1a
.	.	2d	.
2D	2F	2d	2a
2GG	2G	2d	2b
=10	=10	=10	=10
2C	2G	2e	2.cc
2AA	2A	2e	.
.	.	.	8bL
.	.	.	8aJ
1E	1B	1e	4g#i
.	.	.	2a
.	.	.	4g#
=11	=11	=11	=11
1AA	1c#	1e	1a
1D	2d	2A	1f#
.	2A	4d	.
.	.	4c	.
=12	=12	=12	=12
2GG	2B	4B	2.g
.	.	4A	.
2C	2c	2G	.
.	.	.	4a
2BB-	4d	2G	2b-
.	4c	.	.
2GG	4d	2G	2b-
.	4e	.	.
=13	=13	=13	=13
2.D	2.f	2.F	2.a
4E	4e	4G	4g
4F	4d	4A	2f
4G	4d	4B	.
2A	4c	4c	4e
.	8BL	4d	4f
.	8AJ	.	.
=14	=14	=14	=14
1E	1B	2.e	4g#
.	.	.	2a
.	.	4d	4g#
1AA	1A	1c#i	1a
==	==	==	==
*-	*-	*-	*-
!!!CNT: Polish
!!!OCY: Poland
!!!LYR: Jan Kochanowski (1530-1584/08/22)
!!!GTL: Melodiae na Psałterz Polski
!!!EFL: 17/150
!!!PPR: Łazarz Andrysowicz
!!!PPP: Kraków
!!!PDT: 1580
!!!YEC: 2015 Marcin Konik
!!!ENC: Marcin Konik
!!!END: 2015/03/06
!!!EED: Marcin Konik
!!!EEV: 2015/03/06
!!!ONB: Translated from MusicXML and edited on 2015/03/06 by Marcin Konik
!!!CharacterEncoding: utf-8
!!muse2ps: i2I150v85,85,85,150Q16
!!title: @{OTL}, @{GTL}, ed. @{ENC}
